assets/icons/metro/metro_3bis_couleur_RVB.svg

<svg id="metro_3bis_couleur_RVB" xmlns="http://www.w3.org/2000/svg" xmlns:xlink="http://www.w3.org/1999/xlink" width="283.5" height="283.5" viewBox="0 0 283.5 283.5">
	<defs>
		<clipPath id="clip-path">
			<rect id="Rectangle_6" data-name="Rectangle 6" width="283.5" height="283.5"/>
		</clipPath>
	</defs>
	<g id="Groupe_17" data-name="Groupe 17" clip-path="url(#clip-path)">
		<path id="Tracé_17" data-name="Tracé 17" d="M0,141.7A141.775,141.775,0,0,1,141.7,0C220,0,283.5,63.5,283.5,141.7A141.75,141.75,0,0,1,0,141.7" fill="#82c8e6"/>
	</g>
	<g id="Groupe_18" data-name="Groupe 18" clip-path="url(#clip-path)">
		<path id="Tracé_18" data-name="Tracé 18" d="M200.8,143.3c0-10.5-4.7-22.6-16.1-22.6-5.5,0-8.9,2.8-11.8,7.1V105.3H161.4v60.2h11.1v-2a14.821,14.821,0,0,0,9.3,3.3c13.9.1,19-13.8,19-23.5M188.9,145c0,5.9-1.8,13.8-9.1,13.8-5.2,0-7-2.7-7-5.7V138.4c0-2.5.2-3.8,2.2-5.6a7.426,7.426,0,0,1,5.3-2.2c7.2,0,8.6,8.5,8.6,14.4m33.3-34.5c0-3.5-2.4-6-6.4-6-3.9,0-6.4,2.5-6.4,6s2.5,6,6.4,6c4,0,6.4-2.5,6.4-6m-.7,11.5H210.1v43.4h11.4Zm40.7,30.5c0,8.5-6.8,14.4-18.2,14.4a27.5,27.5,0,0,1-12.8-3.3l3.5-8.4a19.6,19.6,0,0,0,10.2,3.3c3,0,6.7-1.1,6.7-4.5,0-3.2-4.1-4.4-6.4-5.3l-3.6-1.4c-5.6-2.2-9.4-5.5-9.4-11.9,0-8.2,6.9-14.7,17.1-14.7a26.106,26.106,0,0,1,11.7,2.8l-3.5,8.4a17.632,17.632,0,0,0-8.8-2.6c-4.6,0-6,2.4-6,4.3,0,2.6,3,3.9,5.1,4.6l3.8,1.4c6.2,2.3,10.6,5.6,10.6,12.9M145.4,170.9c0,26.4-23.6,48.3-58.5,48.3-21.5,0-33.4-5.3-43.4-11.3l11.7-23.2c6.4,4.5,16.8,9.8,29.6,9.8,17.5,0,28.3-10.2,28.3-23,0-17.2-13.2-23.2-28.5-23.2H69V123.4H84.7c14.7,0,23.8-7.7,23.8-19.2,0-9.6-7.2-18.3-23-18.3A41.551,41.551,0,0,0,57.6,96.8l-10.7-22c12.8-8.5,26.6-13.4,45.5-13.4,30.6,0,48.1,18.3,48.1,38.3,0,15.5-8.3,27.9-24.3,33.8v.4c16.6,3.2,29.2,16,29.2,37" fill-rule="evenodd"/>
	</g>
</svg>

<?xml version="1.0" encoding="utf-8"?>
<!-- Generator: Adobe Illustrator 26.3.1, SVG Export Plug-In . SVG Version: 6.00 Build 0)  -->
<svg version="1.1" id="Layer_1" xmlns="http://www.w3.org/2000/svg" xmlns:xlink="http://www.w3.org/1999/xlink" x="0px" y="0px"
	 viewBox="0 0 283.5 283.5" style="enable-background:new 0 0 283.5 283.5;" xml:space="preserve">
<style type="text/css">
	.st0{clip-path:url(#SVGID_00000062192654431834614230000018321160341292359095_);fill:#82C8E6;}
	.st1{clip-path:url(#SVGID_00000062192654431834614230000018321160341292359095_);fill-rule:evenodd;clip-rule:evenodd;}
</style>
<g>
	<defs>
		<rect id="SVGID_1_" x="0" y="0" width="283.5" height="283.5"/>
	</defs>
	<clipPath id="SVGID_00000124840597065488903460000005481875429875956626_">
		<use xlink:href="#SVGID_1_"  style="overflow:visible;"/>
	</clipPath>
	<path style="clip-path:url(#SVGID_00000124840597065488903460000005481875429875956626_);fill:#82C8E6;" d="M0,141.7
		C0,63.5,63.5,0,141.7,0C220,0,283.5,63.5,283.5,141.7c0,78.3-63.4,141.7-141.7,141.7C63.5,283.5,0,220,0,141.7"/>
	
		<path style="clip-path:url(#SVGID_00000124840597065488903460000005481875429875956626_);fill-rule:evenodd;clip-rule:evenodd;" d="
		M200.8,143.3c0-10.5-4.7-22.6-16.1-22.6c-5.5,0-8.9,2.8-11.8,7.1v-22.5h-11.5v60.2h11.1v-2c2.2,2,6,3.3,9.3,3.3
		C195.7,166.9,200.8,153,200.8,143.3 M188.9,145c0,5.9-1.8,13.8-9.1,13.8c-5.2,0-7-2.7-7-5.7v-14.7c0-2.5,0.2-3.8,2.2-5.6
		c1.2-1.2,3-2.2,5.3-2.2C187.5,130.6,188.9,139.1,188.9,145 M222.2,110.5c0-3.5-2.4-6-6.4-6c-3.9,0-6.4,2.5-6.4,6c0,3.5,2.5,6,6.4,6
		C219.8,116.5,222.2,114,222.2,110.5 M221.5,122h-11.4v43.4h11.4V122z M262.2,152.5c0,8.5-6.8,14.4-18.2,14.4
		c-5.4,0-10.4-1.9-12.8-3.3l3.5-8.4c2.8,1.9,6.8,3.3,10.2,3.3c3,0,6.7-1.1,6.7-4.5c0-3.2-4.1-4.4-6.4-5.3l-3.6-1.4
		c-5.6-2.2-9.4-5.5-9.4-11.9c0-8.2,6.9-14.7,17.1-14.7c5.5,0,9.4,1.7,11.7,2.8l-3.5,8.4c-2.5-1.6-6-2.6-8.8-2.6c-4.6,0-6,2.4-6,4.3
		c0,2.6,3,3.9,5.1,4.6l3.8,1.4C257.8,141.9,262.2,145.2,262.2,152.5 M145.4,170.9c0,26.4-23.6,48.3-58.5,48.3
		c-21.5,0-33.4-5.3-43.4-11.3l11.7-23.2c6.4,4.5,16.8,9.8,29.6,9.8c17.5,0,28.3-10.2,28.3-23c0-17.2-13.2-23.2-28.5-23.2H69v-24.9
		h15.7c14.7,0,23.8-7.7,23.8-19.2c0-9.6-7.2-18.3-23-18.3c-13.8,0-23,6.6-27.9,10.9L46.9,74.8c12.8-8.5,26.6-13.4,45.5-13.4
		c30.6,0,48.1,18.3,48.1,38.3c0,15.5-8.3,27.9-24.3,33.8v0.4C132.8,137.1,145.4,149.9,145.4,170.9"/>
</g>
</svg>
